!!!COM:	Martini, Johannes
!!!CDT:	~1440///-~1497//
!!!OPR:	Missa Ma bouche rit
!!!ONM:	3
!!!OTL:	Credo
!!!AGN:	Mass; Credo
!!!SCT:	Mar1010c
!!!SCA:	Mar1010c
!!!voices:	4
!!!voices-OPR:	4
**kern	**kern	**kern	**kern
*staff4	*staff3	*staff2	*staff1
*Ivox	*Ivox	*Ivox	*Ivox
*I"Bassus	*I"Tenor	*I"Contratenor	*I"Superius
*I'B	*I'T	*I'Ct	*I'S
*>[A,B,C]	*>[A,B,C]	*>[A,B,C]	*>[A,B,C]
*>A	*>A	*>A	*>A
*clefF4	*clefGv2	*clefGv2	*clefG2
*k[]	*k[]	*k[]	*k[]
*M2/1	*M2/1	*M2/1	*M2/1
*met(C)	*met(C)	*met(C)	*met(C)
!!section: Patrem omnipotentem
!!!OMD: Patrem omnipotentem
=1-	=1-	=1-	=1-
0r	0r	0r	0a
=2	=2	=2	=2
0r	0A	0r	1e
.	.	.	1a
=3	=3	=3	=3
0r	1E	0r	1g
.	1A	.	1cc
=4	=4	=4	=4
0r	2.G/	0r	1b
.	4F/	.	.
.	2E/	.	2cc\
.	2D/	.	[2dd\
=5	=5	=5	=5
0r	1G	0r	4dd\]
.	.	.	4cc\
.	.	.	1b
.	2.c\	.	.
.	.	.	2a/
.	4B\	.	.
=6	=6	=6	=6
0r	0G	0r	1b
.	.	.	1e
=7	=7	=7	=7
1G	0r	1g	0r
1A	.	2e\	.
.	.	2f\	.
=8	=8	=8	=8
1B	0r	2d\	0r
.	.	1g	.
1c	.	.	.
.	.	4f\	.
.	.	4e\	.
=9	=9	=9	=9
1B	0r	1d	0r
2r	.	2.c\	.
[2E\	.	.	.
.	.	4d\	.
=10	=10	=10	=10
2E\]	0r	2e\	0r
2D\	.	1f	.
2E\	.	.	.
2G\	.	[2e\	.
=11	=11	=11	=11
1F	0r	2e\]	0r
.	.	2d\	.
1E	.	1e	.
=12	=12	=12	=12
0r	1e	0r	1g
.	2d\	.	1a
.	2c\	.	.
=13	=13	=13	=13
0r	2d\	0r	2b\
.	4c\	.	2b\
.	4B\	.	.
.	1A	.	1cc
=14	=14	=14	=14
0r	2G/	0r	2b\
.	2F/	.	1a
.	1G	.	.
.	.	.	[2g/
=15	=15	=15	=15
0r	1A	0r	2g/]
.	.	.	2f#i/
.	1G	.	1g
=16	=16	=16	=16
1c	0r	1.g	0r
2B\	.	.	.
2c\	.	2e\	.
=17	=17	=17	=17
2A\	0r	2f\	0r
2.G\	.	2.e\	.
4E\	.	4d\	.
2F\	.	[2c\	.
=18	=18	=18	=18
1D	0r	2c\]	0r
.	.	2B\	.
1C	.	1c	.
=19	=19	=19	=19
0E	0G	1B	0g
.	.	1c	.
=20	=20	=20	=20
2D\	0A	1d	2f/
2E\	.	.	2g/
1F	.	2c\	1a
.	.	[2d\	.
=21	=21	=21	=21
1G	1B	1d]	1g
[1C	1c	1e	[1g
=22	=22	=22	=22
2C/]	2c\	2e\	2g/]
2C/	2c\	2e\	2g/
1C	1c	1e	1g
=23	=23	=23	=23
1D	1A	1d	1f
2.E\	2G/	2B\	[1g
.	[2E/	2c\	.
4F\	.	.	.
=24	=24	=24	=24
2G\	2E/]	2G/	2g/]
2A\	2C/	1c	2e/
1F	1D	.	1f
.	.	2B\	.
=25	=25	=25	=25
1G	1C	1c	1e
[1D	1r	1f	1a
=26	=26	=26	=26
2D\]	0r	2d\	2f/
2C/	.	2.e\	1g
2E\	.	.	.
.	.	4d\	.
2F\	.	[2c\	4f/
.	.	.	4e/
=27	=27	=27	=27
1G	0r	2c\]	1d
.	.	2B\	.
1C	.	1c	1c
=28	=28	=28	=28
2.c\	1e	1g	0r
4d\	.	.	.
2e\	2c\	1a	.
[2f\	[2d\	.	.
=29	=29	=29	=29
2f\]	2d\]	2d\	1r
1d	2B\	1g	.
.	1A	.	1cc
2c\	.	2f#i\	.
=30	=30	=30	=30
1d	0G	2g\	1.b
.	.	1d	.
1G	.	.	.
.	.	2e\	2g/
=31	=31	=31	=31
1F	1r	1f	1a
1B-i	1G	2d\	1g
.	.	2e\	.
=32	=32	=32	=32
1A	1c	1f	1a
1G	1d	[1g	1b
=33	=33	=33	=33
0C	1.e	0g_	0cc
.	2e\	.	.
=34	=34	=34	=34
0G	1d	1g]	0b
.	2d\	1g	.
.	2d\	.	.
=35	=35	=35	=35
1A	1c	1f	1a
1G	1d	1g	1b
=36	=36	=36	=36
1E	1G	2g\	2b\
.	.	1e	1g
2C/	[1c	.	.
[2F\	.	[2f\	[2a/
=37	=37	=37	=37
2F\]	2c\]	2f\]	2a/]
2G\	2B\	2e\	1g
1D	1A	1d	.
.	.	.	2f#i/
=38	=38	=38	=38
1E	1G	1B	0g
1C	1c	1r	.
=39	=39	=39	=39
2G\	2d\	0r	0r
1A	1f	.	.
2G\	[2e\	.	.
=40	=40	=40	=40
1F	2e\]	0r	0r
.	2d\	.	.
1E	1e	.	.
=41	=41	=41	=41
1.c	0r	0r	1g
.	.	.	2a/
2G\	.	.	2b\
=42	=42	=42	=42
2A\	0r	0r	2cc\
2B\	.	.	1dd
1c	.	.	.
.	.	.	[2cc\
=43	=43	=43	=43
1d	0r	0r	2cc\]
.	.	.	2b\
1c	.	.	1cc
=44	=44	=44	=44
1C	0r	1e	0r
1D	.	2d\	.
.	.	2f\	.
=45	=45	=45	=45
2E\	1r	2g\	0r
2F\	.	1a	.
1G	1B	.	.
.	.	[2g\	.
=46	=46	=46	=46
1A	1c	2g\]	0r
.	.	2f\	.
2G\	2d\	2g\	.
2F\	[2d\	[2a\	.
=47	=47	=47	=47
2E\	2d\]	2a\]	0r
2E\	2c#i\	2g\	.
1D	1d	2f\	.
.	.	2d\	.
=48	=48	=48	=48
1A	2r	2e\	1cc
.	2c\	2f\	.
2.G\	2d\	1g	2b\
.	2e\	.	2cc\
4F\	.	.	.
=49	=49	=49	=49
1D	1f	0r	1dd
2r	2e\	.	2cc\
2D\	[2f\	.	[2a/
=50	=50	=50	=50
2F\	4f\]	0a	2a/]
.	4e\	.	.
2G\	1d	.	4g/
.	.	.	4f/
1A	.	.	1e
.	2c#i\	.	.
=51	=51	=51	=51
1D	1d	2f\	2d/
.	.	1a	2f/
1E	1c	.	1e
.	.	2g\	.
=52	=52	=52	=52
0D	1.f	1a	2r
.	.	.	2a/
.	.	1d	2a/
.	2f\	.	[2a/
=53	=53	=53	=53
2F\	1f	2c\	2a/]
2D\	.	2d\	1b
2G\	1d	2B\	.
2F\	.	2c\	[2a/
=54	=54	=54	=54
1D	1f	2d\	2a/]
.	.	2.a\	1dd
1A	1e	.	.
.	.	4g\	.
.	.	2e\	2cc#i\
=55	=55	=55	=55
1D	1d	1f	1dd
1F	1d	1r	1a
=56	=56	=56	=56
1G	1d	1g	1b
1E	1e	2g\	1cc
.	.	2g\	.
=57	=57	=57	=57
2D\	2f\	2a\	2.dd\
1G	1d	1g	.
.	.	.	4cc\
.	.	.	4b\
.	.	.	4a/
2A\	2c\	2f\	[2a/
=58	=58	=58	=58
1E	1B	1e	2a/]
.	.	.	2g#i/
1F	1A	1c	1a
=59	=59	=59	=59
1G	1E	0r	0r
2E\	2G/	.	.
2F\	2A/	.	.
=60	=60	=60	=60
2D\	2.B\	0r	0r
2.G\	.	.	.
.	4A/	.	.
.	2B\	.	.
4F\	.	.	.
2E\	[2c\	.	.
=61	=61	=61	=61
1D	2c\]	1r	1r
.	2B\	.	.
1r	1c	2.g\	2.e/
.	.	4f\	4f/
=62	=62	=62	=62
0r	2B\	2d\	2g/
.	2c\	2e\	2a/
.	2d\	2f\	4b\
.	.	.	4cc\
.	4c\	[2g\	[2dd\
.	4B\	.	.
=63	=63	=63	=63
1c	1A	2g\]	2dd\]
.	.	2f\	1cc
1d	1G	1g	.
.	.	.	2b\
=64	=64	=64	=64
2.c\	1r	1a	1cc
4d\	.	.	.
1e	2r	2g\	2b\
.	2A/	2e\	2cc\
=65	=65	=65	=65
2d\	2B\	1g	2dd\
1e	2G/	.	2cc\
.	2A/	2f\	1a
[2d\	2F/	2d\	.
=66	=66	=66	=66
2d\]	1E	1e	1g
2c#i\	.	.	.
1d	2D/	1A	2r
.	[2F/	.	[2a/
=67	=67	=67	=67
1D	2F/]	1d	2a/]
.	2G/	.	2g/
1D	2.A/	1d	1f
.	4B\	.	.
=68	=68	=68	=68
1C	1c	1G	1e
1G	1B	2r	2r
.	.	[2g\	2d/
=69	=69	=69	=69
1C	1c	2g\]	2e/
.	.	2e\	2g/
1D	1A	1f	4f/
.	.	.	4e/
.	.	.	4d/
.	.	.	4c/
=70	=70	=70	=70
1E	2G/	1g	2B/
.	2E/	.	1e
1A	1F	1a	.
.	.	.	2d/
=71	=71	=71	=71
2B\	[0El	1.g	[0el
1c	.	.	.
2B\	.	2e\	.
=72	=72	=72	=72
0Bl	0E]	0el	0e]
!!LO:LB:i:g=z
=73||	=73||	=73||	=73||
*>B	*>B	*>B	*>B
*clefF4	*clefGv2	*clefGv2	*clefG2
*k[]	*k[]	*k[]	*k[]
*M2/1	*M2/1	*M2/1	*M2/1
*met(C|)	*met(C|)	*met(C|)	*met(C|)
!!section: Et incarnatus est
!!!OMD: Et incarnatus est
0r	0r	0B	0r
=74	=74	=74	=74
0r	0r	1c	0r
.	.	1c	.
=75	=75	=75	=75
0B	0r	1.d	0r
.	.	4c\	.
.	.	4B\	.
=76	=76	=76	=76
1c	0r	1A	0r
1c	.	1A	.
=77	=77	=77	=77
1.d	0r	0G	0r
4c\	.	.	.
4B\	.	.	.
=78	=78	=78	=78
2.A\	0r	1r	0r
4G\	.	.	.
1A	.	1c	.
=79	=79	=79	=79
1G	0r	2d\	0r
.	.	1e	.
2E\	.	.	.
2F\	.	[2d\	.
=80	=80	=80	=80
2G\	0r	2d\]	0r
1E	.	1g	.
2D\	.	2f\	.
=81	=81	=81	=81
2C/	0r	2e\	0r
1G	.	1d	.
2E\	.	[2c\	.
=82	=82	=82	=82
1D	0r	2c\]	0r
.	.	2B\	.
1C	.	1c	.
=83	=83	=83	=83
1c	0r	0r	1g
2c\	.	.	1a
[2d\	.	.	.
=84	=84	=84	=84
2d\]	0r	0r	1b
4c\	.	.	.
4B\	.	.	.
1A	.	.	2.cc\
.	.	.	4b\
=85	=85	=85	=85
1B	0r	0r	1g
1c	.	.	2r
.	.	.	[2a/
=86	=86	=86	=86
2F\	0r	0r	2a/]
1c	.	.	1a
2B\	.	.	4g/
.	.	.	4f/
=87	=87	=87	=87
2c\	0r	0r	2e/
1A	.	.	1f
2G\	.	.	[2e/
=88	=88	=88	=88
1F	0r	0r	2e/]
.	.	.	2d/
1E	.	.	1e
=89	=89	=89	=89
2C/	0r	1g	0r
2.E\	.	.	.
.	.	1e	.
4F\	.	.	.
2G\	.	.	.
=90	=90	=90	=90
2A\	0r	2f\	0r
2B\	.	2d\	.
4c\	.	2e\	.
4B\	.	.	.
4A\	.	[2g\	.
4G\	.	.	.
=91	=91	=91	=91
1A	0r	2g\]	0r
.	.	2f#i\	.
1G	.	1g	.
=92	=92	=92	=92
1G	0r	0r	1b
2A\	.	.	2cc\
2B\	.	.	2dd\
=93	=93	=93	=93
1G	0r	1B	1b
1F	.	2c\	1a
.	.	2d\	.
=94	=94	=94	=94
1G	0r	1B	2g/
.	.	.	1dd
1r	.	1A	.
.	.	.	2cc\
=95	=95	=95	=95
0r	0r	2G/	2b\
.	.	1d	4a/
.	.	.	4g/
.	.	.	2f/
.	.	2B\	[2g/
=96	=96	=96	=96
0r	0r	1A	2g/]
.	.	.	2f#i/
.	.	1G	1g
=97	=97	=97	=97
1G	0r	2d\	0r
.	.	2e\	.
2D\	.	2f\	.
[2F\	.	[2a\	.
=98	=98	=98	=98
2F\]	0r	4a\]	0r
.	.	4g\	.
1G	.	2e\	.
.	.	2d\	.
2B\	.	[2g\	.
=99	=99	=99	=99
1A	0r	2g\]	0r
.	.	2f#i\	.
1G	.	1g	.
=100	=100	=100	=100
0r	0r	2.G/	1dd
.	.	4A/	.
.	.	2B\	2dd\
.	.	[2c\	[2ee\
=101	=101	=101	=101
0r	0r	4c\]	4ee\]
.	.	4d\	4dd\
.	.	4e\	2cc\
.	.	4f\	.
.	.	2.g\	2b\
.	.	.	[2dd\
.	.	4f\	.
=102	=102	=102	=102
0r	0r	2d\	4dd\]
.	.	.	4cc\
.	.	2c\	2a/
.	.	[1e	2g/
.	.	.	[2cc\
=103	=103	=103	=103
1r	0r	2e\]	2cc\]
.	.	4d\	4b\
.	.	4c\	4a/
1G	.	1d	1b
=104	=104	=104	=104
1A	0r	1c	1cc
2G\	.	1g	1r
[2E\	.	.	.
=105	=105	=105	=105
2E\]	0r	1a	0r
2D\	.	.	.
2E\	.	2g\	.
2G\	.	[2e\	.
=106	=106	=106	=106
2.F\	0r	2e\]	1r
.	.	2d\	.
4E\	.	.	.
1C	.	2e\	1g
.	.	2g\	.
=107	=107	=107	=107
0r	0r	2.f\	1a
.	.	4e\	.
.	.	1c	2g/
.	.	.	[2e/
=108	=108	=108	=108
1r	0r	1r	2e/]
.	.	.	2d/
1G	.	2g\	2e/
.	.	2e\	2g/
=109	=109	=109	=109
2A\	0r	2f\	2f/
1c	.	1a	4e/
.	.	.	4d/
.	.	.	1c
2B\	.	[2g\	.
=110	=110	=110	=110
1A	0r	2g\]	0r
.	.	2f#i\	.
[1G	.	1g	.
=111	=111	=111	=111
2G\]	0r	0r	1g
2E\	.	.	.
2F\	.	.	2a/
[2A\	.	.	2cc\
=112	=112	=112	=112
2A\]	0r	0r	2dd\
1G	.	.	2b\
.	.	.	1a
2F#i\	.	.	.
=113	=113	=113	=113
1G	0r	0r	2g/
.	.	.	2e/
2A\	.	.	2f/
2c\	.	.	[2a/
=114	=114	=114	=114
2d\	0r	0r	2a/]
2B\	.	.	1g
1A	.	.	.
.	.	.	2f#i/
=115	=115	=115	=115
1G	0r	1g	1g
1F	.	2c\	1a
.	.	[2d\	.
=116	=116	=116	=116
1G	0r	2d\]	1b
.	.	1e	.
1A	.	.	1cc
.	.	[2f\	.
=117	=117	=117	=117
2F\	0r	2f\]	2a/
1G	.	2d\	1b
.	.	2e\	.
2A\	.	2c\	[2a/
=118	=118	=118	=118
1E	0r	1B	2a/]
.	.	.	2g#i/
2F\	.	1A	1a
2D\	.	.	.
=119	=119	=119	=119
2C/	0r	2.E/	0r
1G	.	.	.
.	.	4F/	.
.	.	2G/	.
2F\	.	2A/	.
=120	=120	=120	=120
2G\	0r	2B\	0r
2E\	.	1c	.
1D	.	.	.
.	.	2B\	.
=121	=121	=121	=121
2C/	0r	1c	2.e/
1c	.	.	.
.	.	.	4f/
.	.	2e\	2g/
4B\	.	2f\	2a/
4A\	.	.	.
=122	=122	=122	=122
2G\	0r	2g\	2b\
2A\	.	2c\	1cc
1G	.	1d	.
.	.	.	2b\
=123	=123	=123	=123
1C	0r	1c	1cc
2G\	.	1e	2b\
2A\	.	.	2cc\
=124	=124	=124	=124
2B\	0r	2d\	2.dd\
2G\	.	2.e\	.
.	.	.	4cc\
2A\	.	.	1a
.	.	4d\	.
2F\	.	[2d\	.
=125	=125	=125	=125
1E	0r	2d\]	1g
.	.	2c#i\	.
2D\	.	2.d\	2r
[2F\	.	.	[2a/
.	.	4cni\	.
=126	=126	=126	=126
4F\]	0r	1A	2a/]
4G\	.	.	.
4A\	.	.	4g/
4B\	.	.	4f/
2c\	.	2r	2e/
2d\	.	[2a\	2d/
=127	=127	=127	=127
2A\	0r	2a\]	2f/
1c	.	2g\	2e/
.	.	2e\	2c/
[2F\	.	[2a\	[2f/
=128	=128	=128	=128
2F\]	0r	2a\]	2f/]
2G\	.	2g\	1e
2A\	.	1f	.
2B\	.	.	2d/
=129	=129	=129	=129
0cl	0r	0el	0el
!!LO:LB:i:g=z
=130||	=130||	=130||	=130||
*>C	*>C	*>C	*>C
*clefF4	*clefGv2	*clefGv2	*clefG2
*k[]	*k[]	*k[]	*k[]
*M2/1	*M2/1	*M2/1	*M2/1
*met(C|)	*met(C|)	*met(C|)	*met(C|)
!!section: Et in Spiritum Sanctum
!!!OMD: Et in Spiritum Sanctum
0r	0r	1g	1b
.	.	1g	1b
=131	=131	=131	=131
0r	0r	1e	1cc
.	.	1e	1cc
=132	=132	=132	=132
0r	0r	1d	0dd
.	.	2.G/	.
.	.	4A/	.
=133	=133	=133	=133
0r	0r	2.B\	1r
.	.	4A/	.
.	.	2B\	1g
.	.	[2c\	.
=134	=134	=134	=134
0r	0r	2c\]	1a
.	.	4B\	.
.	.	4A/	.
.	.	1G	1b
=135	=135	=135	=135
0r	0r	2A/	2cc\
.	.	2G/	4b\
.	.	.	4a/
.	.	2B\	2g/
.	.	[2c\	[2a/
=136	=136	=136	=136
0r	0r	4c\]	2a/]
.	.	4B\	.
.	.	4A/	1g
.	.	4G/	.
.	.	1A	.
.	.	.	2f#i/
=137	=137	=137	=137
0r	0r	0G	1g
.	.	.	1r
=138	=138	=138	=138
[0G	[0B	1r	1d
.	.	1d	[1g
=139	=139	=139	=139
0G]	0B]	1d	2g/]
.	.	.	2a/
.	.	1d	1b
=140	=140	=140	=140
1F	[0c	1f	1a
1E	.	1g	1g
=141	=141	=141	=141
0A	0c]	2a\	0cc
.	.	2e\	.
.	.	1f	.
=142	=142	=142	=142
[0G	0d	1g	0b
.	.	1d	.
=143	=143	=143	=143
0G]	1.d	0g	1r
.	.	.	1b
.	2c\	.	.
=144	=144	=144	=144
[0F	0A	1.a	0cc
.	.	2g\	.
=145	=145	=145	=145
1F]	0D	2f\	0dd
.	.	2e\	.
1D	.	1f	.
=146	=146	=146	=146
1E	[0G	1g	1b
1C	.	[1e	1cc
=147	=147	=147	=147
0E	0G]	2e\]	1.b
.	.	2d\	.
.	.	2B\	.
.	.	2c\	4a/
.	.	.	4g/
=148	=148	=148	=148
1D	0A	1d	1f
1F	.	1c	1a
=149	=149	=149	=149
1E	[0B	1e	1g
[1G	.	[1d	[1b
=150	=150	=150	=150
2G\]	0B]	2d\]	2b\]
4F\	.	2e\	2cc\
4E\	.	.	.
1D	.	2f\	1dd
.	.	2g\	.
=151	=151	=151	=151
0C	0c	1e	1g
.	.	2c\	2a/
.	.	[2e\	[2g/
=152	=152	=152	=152
0r	0G	2e\]	4g/]
.	.	.	4f/
.	.	4d\	2e/
.	.	4c\	.
.	.	1B	1d
=153	=153	=153	=153
0C	0r	0c	1c
.	.	.	2r
.	.	.	[2g/
=154	=154	=154	=154
2.c\	0r	1e	2g/]
.	.	.	2a/
4d\	.	.	.
1e	.	1c	2g/
.	.	.	[2cc\
=155	=155	=155	=155
2c\	0r	2A/	2cc\]
1d	.	1G	1b
2c\	.	2A/	2cc\
=156	=156	=156	=156
2B\	0r	2G/	2dd\
2A\	.	1c	1ee
2c\	.	.	.
2B\	.	2G/	[2dd\
=157	=157	=157	=157
2c\	0r	2A/	2dd\]
2e\	.	2c\	1cc
1d	.	1G	.
.	.	.	2b\
=158	=158	=158	=158
1c	[0e	1g	1cc
1C	.	1e	2r
.	.	.	2g/
=159	=159	=159	=159
1E	0e]	1g	2g/
.	.	.	2g/
2.F\	.	1f	1a
4E\	.	.	.
=160	=160	=160	=160
0C	[0e	1e	1g
.	.	[1g	[1cc
=161	=161	=161	=161
1r	0e]	2g\]	2cc\]
.	.	2d\	4b\
.	.	.	4a/
1C	.	1e	1g
=162	=162	=162	=162
1.c	[0A	1f	1a
.	.	2c\	2a/
[2A\	.	[2f\	[2a/
=163	=163	=163	=163
2A\]	0A]	2f\]	2a/]
2F\	.	4e\	2g/
.	.	4d\	.
2A\	.	2.c\	2f/
2B\	.	.	2f/
.	.	4d\	.
=164	=164	=164	=164
1.c	[0C	1e	0e
.	.	[1c	.
4B\	.	.	.
4A\	.	.	.
=165	=165	=165	=165
0G	0C]	2c\]	1r
.	.	2d\	.
.	.	1e	1g
=166	=166	=166	=166
1F	[0c	0A	1a
2F\	.	.	[1cc
[2A\	.	.	.
=167	=167	=167	=167
4A\]	0c]	1r	2cc\]
4G\	.	.	.
4F\	.	.	2b\
4E\	.	.	.
1F	.	1A	1a
=168	=168	=168	=168
0G	0B	0d	1g
.	.	.	2d/
.	.	.	[2g/
=169	=169	=169	=169
0A	0c	1c	2g/]
.	.	.	4f#i/
.	.	.	4e/
.	.	1A	1f#i
=170	=170	=170	=170
1G	0d	1B	1g
2G\	.	[1G	2r
[2G\	.	.	[2b\
=171	=171	=171	=171
2G\]	0B	1G]	2b\]
4F\	.	.	2cc\
4E\	.	.	.
1D	.	1F	1dd
=172	=172	=172	=172
1.C	0c	1.G	1.ee
[2F\	.	[2A/	[2cc\
=173	=173	=173	=173
2F\]	0A	2A/]	2cc\]
2D\	.	2F/	2dd\
2.F\	.	2.A/	2.cc\
4G\	.	4B\	4b\
=174	=174	=174	=174
2A\	0r	2c\	1a
2B\	.	2d\	.
1c	.	1e	2g/
.	.	.	2a/
=175	=175	=175	=175
2B\	0r	2d\	2b\
1A	.	2e\	1cc
.	.	2c\	.
[2G\	.	[2d\	[2b\
=176	=176	=176	=176
2G\]	0r	2d\]	2b\]
2A\	.	2c\	1a
1E	.	1B	.
.	.	.	2g#i/
=177	=177	=177	=177
1r	[0A	2A/	0a
.	.	1c	.
1A	.	.	.
.	.	2d\	.
=178	=178	=178	=178
1.c	0A]	2e\	1r
.	.	2f\	.
.	.	2e\	1cc
2d\	.	[2a\	.
=179	=179	=179	=179
1e	0A	4a\]	1cc
.	.	4g\	.
.	.	4f#i\	.
.	.	4e\	.
1c	.	1f#i	1cc
=180	=180	=180	=180
1d	[0G	1g	1b
2c\	.	2r	2cc\
[2B\	.	[2d\	[2dd\
=181	=181	=181	=181
2B\]	0G]	2d\]	4dd\]
.	.	.	4cc\
2A\	.	2c\	4b\
.	.	.	4a/
1G	.	2d\	1b
.	.	2e\	.
=182	=182	=182	=182
1.F	0c	2.f\	1.a
.	.	4e\	.
.	.	2.c\	.
4E\	.	.	4g/
4D\	.	4d\	4f/
=183	=183	=183	=183
1C	1c	2.e\	1e
.	.	4f\	.
1G	1B	1g	1d
=184	=184	=184	=184
2.C/	0c	2r	2.e/
.	.	1G	.
4D\	.	.	4f/
2E\	.	.	2g/
[2F\	.	2F/	[2a/
=185	=185	=185	=185
2F\]	0d	2A/	2a/]
2G\	.	2B\	1g
1D	.	1A	.
.	.	.	2f#i/
=186	=186	=186	=186
0G	1d	1G	1g
.	1B	1d	1r
=187	=187	=187	=187
1.F	1c	1A	1a
.	1d	1F	1b
4E\	.	.	.
4D\	.	.	.
=188	=188	=188	=188
0C	[0e	2G/	1.cc
.	.	1A	.
.	.	4G/	4b\
.	.	4F/	4a/
=189	=189	=189	=189
0r	0e]	2E/	1g
.	.	1c	.
.	.	.	2a/
.	.	4B\	[2b\
.	.	4A/	.
=190	=190	=190	=190
0r	0e	2G/	2b\]
.	.	2A/	1a
.	.	1E	.
.	.	.	2g#i/
=191	=191	=191	=191
0c	[0A	1e	0a
.	.	1e	.
=192	=192	=192	=192
1.F	0A]	0f	1r
.	.	.	[1a
4E\	.	.	.
4D\	.	.	.
=193	=193	=193	=193
0C	0r	1e	2a/]
.	.	.	4g/
.	.	.	4f/
.	.	1c	1e
=194	=194	=194	=194
1G	0r	1B	1d
1E	.	1c	1e
=195	=195	=195	=195
1D	0r	1d	1f
1E	.	1B	1g
=196	=196	=196	=196
1C	0r	1c	1e
2.F\	.	1A	1c
4E\	.	.	.
=197	=197	=197	=197
2C/	0r	2r	2e/
2D\	.	2A/	2f/
2E\	.	2G/	1g
[2C/	.	[2c\	.
=198	=198	=198	=198
2C/]	0r	4c\]	2e/
.	.	4B\	.
2F\	.	2c\	1f
2D\	.	2d\	.
2G\	.	2B\	2d/
=199	=199	=199	=199
1C	0r	2.c\	1e
.	.	4d\	.
2.c\	.	1e	1A
4d\	.	.	.
=200	=200	=200	=200
1e	0r	2.A/	0r
.	.	4B\	.
1A	.	4c\	.
.	.	4d\	.
.	.	[2e\	.
=201	=201	=201	=201
2G\	0r	2e\]	0r
2A\	.	2f\	.
2.c\	.	2e\	.
.	.	[2a\	.
4B\	.	.	.
=202	=202	=202	=202
2A\	0r	4a\]	0r
.	.	4g\	.
2G\	.	2e\	.
2B\	.	2d\	.
[2A\	.	[2f\	.
=203	=203	=203	=203
2A\]	0r	2f\]	0r
2G\	.	1e	.
1F	.	.	.
.	.	2d\	.
=204	=204	=204	=204
1E	0r	1e	0r
[1G	.	2r	.
.	.	[2B\	.
=205	=205	=205	=205
2G\]	0r	2B\]	0r
2F\	.	2c\	.
1G	.	2B\	.
.	.	[2e\	.
=206	=206	=206	=206
2A\	0r	4e\]	0r
.	.	4d\	.
2G\	.	2B\	.
2.c\	.	2A/	.
.	.	[2c\	.
4d\	.	.	.
=207	=207	=207	=207
2e\	0r	2c\]	0r
2.d\	.	1B	.
4c\	.	.	.
4B\	.	[2A/	.
4A\	.	.	.
=208	=208	=208	=208
1B	0r	2A/]	0r
.	.	2G#i/	.
1A	.	1A	.
=209	=209	=209	=209
*M3/1	*M3/1	*M3/1	*M3/1
*met(3)	*met(3)	*met(3)	*met(3)
1.A	0A	0e	0cc
2B\	.	.	.
1c	1A	1f	1cc
=210	=210	=210	=210
0d	0G	0g	0b
1c	1A	1f	1cc
=211	=211	=211	=211
1B	1G	1d	1.dd
1A	1c	1e	.
.	.	.	2cc\
2G\	1d	1A	2b\
2F\	.	.	2a/
=212	=212	=212	=212
1.E	0.e	1B	1.g
.	.	1c	.
2F\	.	.	2a/
1G	.	1B	1b
=213	=213	=213	=213
1A	0e	0A	0cc
1c	.	.	.
1G	1d	1r	1b
=214	=214	=214	=214
0A	0c	1e	1cc
.	.	1f	1a
1G	1d	[1g	1b
=215	=215	=215	=215
1c	1e	0.g]	1cc
0G	0d	.	2dd\
.	.	.	2cc\
.	.	.	2b\
.	.	.	2a/
=216	=216	=216	=216
1A	1c	0e	0a
0E	0B	.	.
.	.	1e	1g#i
=217	=217	=217	=217
0.Al	0.Al	0.cl	0.al
==	==	==	==
*-	*-	*-	*-
!!!RDF**kern: l=long note in original notation
!!!RDF**kern: i=editorial accidental
!!!ENC:	Chris Gage 10-22-2014
!!!END:	2015/03/07/
!!!EED:	Jesse Rodin
!!!EEV:	2015/03/09/
!!!ONB:	Translated from MusicXML and edited on 2015/03/09/ by Craig Sapp
!!muse2ps: T^@{OPR}^u^@{ONM}{. }@{OTL}^C^@{COM}^i2I150v85,85,85,150Q16
